X: 201680
T: Tear It to Rags
T: Str\'oic ina Ghiobail \'E
S: B.Breathnach:"Ceol Rince na hEireann" IV/67 
Z: B.Black
L: 1/8
M: 12/8
Q: 360
R: jig
K: G
dBG G2B A2G G2B|dBG G2e faf ege|
dBG G2B A2G G2E|F3 GAB c3 B2c :|
d2g gfg d2g gfg|d2g gag faf ege|
d2g gfg d2g gfg|aba a2g faf ege :|
